data/icons/scalable/actions/movies-symbolic.svg

<?xml version="1.0" encoding="UTF-8"?>
<svg height="16px" viewBox="0 0 16 16" width="16px" xmlns="http://www.w3.org/2000/svg">
    <path d="m 13.921875 0 l -1.914063 0.585938 l 0.585938 1.90625 l 1.914062 -0.582032 z m -2.871094 0.878906 l -1.910156 0.582032 l 0.582031 1.910156 l 1.914063 -0.585938 z m -2.867187 0.875 l -1.914063 0.585938 l 0.585938 1.90625 l 1.914062 -0.585938 z m -2.871094 0.875 l -1.910156 0.585938 l 0.582031 1.90625 l 1.914063 -0.582032 z m -2.867188 0.878906 l -1.914062 0.582032 l 0.585938 1.910156 l 1.914062 -0.585938 z m -1.445312 3.492188 v 5.933594 c 0 1.664062 1.367188 3.035156 3.03125 3.035156 h 7.917969 c 1.660156 0 3.03125 -1.371094 3.03125 -3.035156 v -5.933594 h -2 v 5.933594 c 0 0.589844 -0.441407 1.035156 -1.03125 1.035156 h -7.917969 c -0.589844 0 -1.03125 -0.445312 -1.03125 -1.035156 v -5.933594 z m 3 0 v 2 h 2 v -2 z m 3 0 v 2 h 2 v -2 z m 3 0 v 2 h 2 v -2 z m 0 0" fill="#222222"/>
</svg>

<svg xmlns="http://www.w3.org/2000/svg" width="16" height="16" viewBox="0 0 16 16"><path fill="#222" d="m13.922 0-1.914.586.586 1.906 1.914-.582zM11.05.879l-1.91.582.582 1.91 1.914-.586zm-2.867.875L6.27 2.34l.585 1.906L8.77 3.66zm-2.871.875-1.91.586.581 1.906 1.914-.582zm-2.868.879L.531 4.09 1.117 6l1.914-.586zM1 7v5.934a3.05 3.05 0 0 0 3.031 3.035h7.918a3.05 3.05 0 0 0 3.031-3.035V7h-2v5.934a1.01 1.01 0 0 1-1.03 1.035H4.03A1.01 1.01 0 0 1 3 12.934V7zm3 0v2h2V7zm3 0v2h2V7zm3 0v2h2V7zm0 0"/></svg>
